X: 20
T:Green fields of Rossbeigh
M:C
L:1/8
K:EMinor
BE (3EEE BAFB| AB de fded| BE (3EEE BAFA| ABAF EGA|
~B3 B B{c}BFB|ABde fded| BE(3EEE BAFA| ABAF E4 :|
|:(3B^cd ef g2 fe| dB ~B2 dBAd|(3B^cd ef g2 fe| dBAF E3 e|
~g3 a gfeg| ~f3 g fedB| ABde efed| dBAF E4 :|
